src/icons/svg/input.svg

<svg t="1629108241660" class="icon" viewBox="0 0 1024 1024" version="1.1" xmlns="http://www.w3.org/2000/svg" p-id="12280" width="200" height="200"><path d="M970.666667 204.8l-151.466667-151.466667L701.866667 170.666667H64c-12.8 0-21.333333 8.533333-21.333333 21.333333v768c0 12.8 8.533333 21.333333 21.333333 21.333333h576c6.4 0 10.666667-2.133333 14.933333-6.4l192-192c4.266667-4.266667 6.4-8.533333 6.4-14.933333V322.133333l117.333334-117.333333z m-529.066667 469.333333l-98.133333-85.333333L742.4 189.866667l91.733333 91.733333-392.533333 392.533333z m-123.733333-49.066666l89.6 76.8-121.6 34.133333 32-110.933333zM910.933333 204.8l-46.933333 46.933333-91.733333-91.733333 46.933333-46.933333 91.733333 91.733333zM661.333333 908.8V789.333333h119.466667L661.333333 908.8z m149.333334-162.133333h-170.666667c-12.8 0-21.333333 8.533333-21.333333 21.333333v170.666667H85.333333V213.333333h573.866667l-128 128H170.666667v42.666667h317.866666l-128 128H170.666667v42.666667h147.2l-32 32-61.866667 213.333333 213.333333-61.866667 183.466667-183.466666H725.333333v-42.666667h-61.866666l147.2-147.2V746.666667z" p-id="12281"></path></svg>

<svg viewBox="0 0 1024 1024" width="200" height="200"><path d="M970.667 204.8L819.2 53.333 701.867 170.667H64c-12.8 0-21.333 8.533-21.333 21.333v768c0 12.8 8.533 21.333 21.333 21.333h576c6.4 0 10.667-2.133 14.933-6.4l192-192c4.267-4.266 6.4-8.533 6.4-14.933V322.133L970.667 204.8zM441.6 674.133L343.467 588.8 742.4 189.867l91.733 91.733L441.6 674.133zm-123.733-49.066l89.6 76.8L285.867 736l32-110.933zM910.933 204.8L864 251.733 772.267 160l46.933-46.933 91.733 91.733zm-249.6 704V789.333H780.8L661.333 908.8zm149.334-162.133H640c-12.8 0-21.333 8.533-21.333 21.333v170.667H85.333V213.333H659.2l-128 128H170.667V384h317.866l-128 128H170.667v42.667h147.2l-32 32L224 800l213.333-61.867L620.8 554.667h104.533V512h-61.866l147.2-147.2v381.867z"/></svg>
